src/components/icons/eth-wallet.svg

<svg width="1em" height="1em" viewBox="0 0 49 48" fill="none" xmlns="http://www.w3.org/2000/svg">
<rect x="2.14453" y="15.9893" width="44.3751" height="29.7866" rx="4.5" stroke="currentcolor" stroke-width="3"/>
<path d="M4.26953 16.5966L22.9943 5.55738C26.9941 3.19933 32.0415 6.08292 32.0415 10.726V16.5966" stroke="currentcolor" stroke-width="3"/>
<mask id="path-3-outside-1_7288_10920" maskUnits="userSpaceOnUse" x="23.4766" y="31.2002" width="8" height="11" fill="black">
<rect fill="white" x="23.4766" y="31.2002" width="8" height="11"/>
<path fill-rule="evenodd" clip-rule="evenodd" d="M31.1135 32.2002L24.4766 36.0606V41.0025L31.1135 32.2002ZM29.8215 33.3457L24.647 36.3554V40.2084L29.8215 33.3457Z"/>
</mask>
<path fill-rule="evenodd" clip-rule="evenodd" d="M31.1135 32.2002L24.4766 36.0606V41.0025L31.1135 32.2002ZM29.8215 33.3457L24.647 36.3554V40.2084L29.8215 33.3457Z" fill="currentcolor"/>
<path d="M24.4766 36.0606L24.376 35.8877C24.3144 35.9235 24.2766 35.9894 24.2766 36.0606H24.4766ZM31.1135 32.2002L31.2732 32.3206C31.3305 32.2446 31.3263 32.1387 31.2631 32.0675C31.1999 31.9962 31.0952 31.9794 31.0129 32.0273L31.1135 32.2002ZM24.4766 41.0025H24.2766C24.2766 41.0885 24.3315 41.1648 24.4131 41.1921C24.4946 41.2194 24.5845 41.1915 24.6363 41.1229L24.4766 41.0025ZM24.647 36.3554L24.5464 36.1825C24.4849 36.2184 24.447 36.2842 24.447 36.3554H24.647ZM29.8215 33.3457L29.9811 33.4661C30.0385 33.3901 30.0342 33.2841 29.971 33.2129C29.9079 33.1417 29.8032 33.1249 29.7209 33.1728L29.8215 33.3457ZM24.647 40.2084H24.447C24.447 40.2944 24.5019 40.3707 24.5835 40.398C24.665 40.4253 24.7549 40.3974 24.8067 40.3288L24.647 40.2084ZM24.5771 36.2335L31.214 32.3731L31.0129 32.0273L24.376 35.8877L24.5771 36.2335ZM24.6766 41.0025V36.0606H24.2766V41.0025H24.6766ZM24.6363 41.1229L31.2732 32.3206L30.9538 32.0798L24.3169 40.8821L24.6363 41.1229ZM24.7475 36.5283L29.922 33.5186L29.7209 33.1728L24.5464 36.1825L24.7475 36.5283ZM24.847 40.2084V36.3554H24.447V40.2084H24.847ZM29.6618 33.2253L24.4873 40.088L24.8067 40.3288L29.9811 33.4661L29.6618 33.2253Z" fill="currentcolor" mask="url(#path-3-outside-1_7288_10920)"/>
<mask id="path-5-outside-2_7288_10920" maskUnits="userSpaceOnUse" x="16.8398" y="31.2007" width="8" height="11" fill="black">
<rect fill="white" x="16.8398" y="31.2007" width="8" height="11"/>
<path fill-rule="evenodd" clip-rule="evenodd" d="M17.8398 32.2007L24.4768 41.003V36.0606L24.4767 36.0605L24.4762 36.0608L17.8398 32.2007ZM19.129 33.3463L24.306 40.2123V36.3575L24.3038 36.3563L19.129 33.3463Z"/>
</mask>
<path fill-rule="evenodd" clip-rule="evenodd" d="M17.8398 32.2007L24.4768 41.003V36.0606L24.4767 36.0605L24.4762 36.0608L17.8398 32.2007ZM19.129 33.3463L24.306 40.2123V36.3575L24.3038 36.3563L19.129 33.3463Z" fill="currentcolor"/>
<path d="M17.8398 32.2007L17.9404 32.0278C17.8581 31.9799 17.7534 31.9967 17.6902 32.0679C17.627 32.1392 17.6228 32.2451 17.6802 32.3211L17.8398 32.2007ZM24.4768 41.003L24.3171 41.1234C24.3688 41.192 24.4587 41.2199 24.5403 41.1926C24.6218 41.1653 24.6768 41.089 24.6768 41.003H24.4768ZM24.4768 36.0606H24.6768C24.6768 35.9894 24.639 35.9236 24.5775 35.8878L24.4768 36.0606ZM24.4767 36.0605L24.5775 35.8878C24.5153 35.8515 24.4384 35.8514 24.3761 35.8876L24.4767 36.0605ZM24.4762 36.0608L24.3757 36.2337C24.4379 36.2698 24.5146 36.2698 24.5768 36.2337L24.4762 36.0608ZM24.306 40.2123L24.1463 40.3328C24.198 40.4014 24.2879 40.4293 24.3695 40.402C24.451 40.3747 24.506 40.2983 24.506 40.2123H24.306ZM19.129 33.3463L19.2296 33.1735C19.1472 33.1256 19.0426 33.1424 18.9794 33.2136C18.9162 33.2848 18.912 33.3907 18.9693 33.4667L19.129 33.3463ZM24.306 36.3575H24.506C24.506 36.286 24.4678 36.22 24.4059 36.1843L24.306 36.3575ZM24.3038 36.3563L24.2032 36.5291L24.2039 36.5295L24.3038 36.3563ZM17.6802 32.3211L24.3171 41.1234L24.6365 40.8826L17.9995 32.0803L17.6802 32.3211ZM24.6768 41.003V36.0606H24.2768V41.003H24.6768ZM24.5775 35.8878L24.5775 35.8878L24.3759 36.2333L24.376 36.2333L24.5775 35.8878ZM24.3761 35.8876L24.3757 35.8879L24.5768 36.2337L24.5773 36.2334L24.3761 35.8876ZM24.5768 35.8879L17.9404 32.0278L17.7393 32.3736L24.3757 36.2337L24.5768 35.8879ZM24.4657 40.0919L19.2887 33.2259L18.9693 33.4667L24.1463 40.3328L24.4657 40.0919ZM24.106 36.3575V40.2123H24.506V36.3575H24.106ZM24.2039 36.5295L24.2061 36.5308L24.4059 36.1843L24.4037 36.183L24.2039 36.5295ZM19.0284 33.5192L24.2032 36.5291L24.4043 36.1834L19.2296 33.1735L19.0284 33.5192Z" fill="currentcolor" mask="url(#path-5-outside-2_7288_10920)"/>
<mask id="path-7-outside-3_7288_10920" maskUnits="userSpaceOnUse" x="16.8359" y="19.7627" width="8" height="12" fill="black">
<rect fill="white" x="16.8359" y="19.7627" width="8" height="12"/>
<path fill-rule="evenodd" clip-rule="evenodd" d="M17.8362 31.1788L17.8359 31.1791L24.4736 28.2273V20.7627L17.8363 31.1787L17.8362 31.1788ZM24.303 28.1166V21.6721L18.5726 30.6649L24.303 28.1166Z"/>
</mask>
<path fill-rule="evenodd" clip-rule="evenodd" d="M17.8362 31.1788L17.8359 31.1791L24.4736 28.2273V20.7627L17.8363 31.1787L17.8362 31.1788ZM24.303 28.1166V21.6721L18.5726 30.6649L24.303 28.1166Z" fill="currentcolor"/>
<path d="M17.8359 31.1791L17.6673 31.0716C17.6199 31.146 17.6268 31.2427 17.6844 31.3096C17.7419 31.3765 17.8366 31.3977 17.9172 31.3619L17.8359 31.1791ZM17.8362 31.1788L17.7545 30.9962C17.7188 31.0122 17.6886 31.0382 17.6675 31.0712L17.8362 31.1788ZM24.4736 28.2273L24.5548 28.4101C24.627 28.378 24.6736 28.3063 24.6736 28.2273H24.4736ZM24.4736 20.7627H24.6736C24.6736 20.6738 24.6149 20.5956 24.5295 20.5707C24.4442 20.5458 24.3527 20.5802 24.3049 20.6552L24.4736 20.7627ZM17.8363 31.1787L17.9179 31.3613C17.9537 31.3453 17.9839 31.3192 18.005 31.2862L17.8363 31.1787ZM24.303 21.6721H24.503C24.503 21.5832 24.4443 21.5049 24.359 21.4801C24.2736 21.4552 24.1821 21.4896 24.1343 21.5646L24.303 21.6721ZM24.303 28.1166L24.3843 28.2993C24.4565 28.2672 24.503 28.1956 24.503 28.1166H24.303ZM18.5726 30.6649L18.404 30.5574C18.3565 30.6319 18.3635 30.7286 18.4211 30.7954C18.4787 30.8623 18.5733 30.8835 18.6539 30.8477L18.5726 30.6649ZM18.0046 31.2867L18.0048 31.2864L17.6675 31.0712L17.6673 31.0716L18.0046 31.2867ZM24.3923 28.0446L17.7547 30.9964L17.9172 31.3619L24.5548 28.4101L24.3923 28.0446ZM24.2736 20.7627V28.2273H24.6736V20.7627H24.2736ZM24.3049 20.6552L17.6676 31.0712L18.005 31.2862L24.6422 20.8702L24.3049 20.6552ZM17.7547 30.9961L17.7545 30.9962L17.9178 31.3614L17.9179 31.3613L17.7547 30.9961ZM24.103 21.6721V28.1166H24.503V21.6721H24.103ZM18.7413 30.7724L24.4717 21.7795L24.1343 21.5646L18.404 30.5574L18.7413 30.7724ZM24.2217 27.9338L18.4914 30.4822L18.6539 30.8477L24.3843 28.2993L24.2217 27.9338Z" fill="currentcolor" mask="url(#path-7-outside-3_7288_10920)"/>
<mask id="path-9-outside-4_7288_10920" maskUnits="userSpaceOnUse" x="16.8359" y="27.2275" width="8" height="8" fill="black">
<rect fill="white" x="16.8359" y="27.2275" width="8" height="8"/>
<path fill-rule="evenodd" clip-rule="evenodd" d="M17.8397 31.1822L24.4736 34.9568V28.2275L17.8381 31.1779L17.8375 31.1788L17.8359 31.1795L17.8399 31.1818L17.8397 31.1822ZM18.4008 31.1151L24.3042 34.474V28.4903L18.4008 31.1151Z"/>
</mask>
<path fill-rule="evenodd" clip-rule="evenodd" d="M17.8397 31.1822L24.4736 34.9568V28.2275L17.8381 31.1779L17.8375 31.1788L17.8359 31.1795L17.8399 31.1818L17.8397 31.1822ZM18.4008 31.1151L24.3042 34.474V28.4903L18.4008 31.1151Z" fill="currentcolor"/>
<path d="M24.4736 34.9568L24.3747 35.1306C24.4366 35.1658 24.5126 35.1655 24.5742 35.1296C24.6357 35.0938 24.6736 35.028 24.6736 34.9568H24.4736ZM17.8397 31.1822L17.671 31.0747C17.6416 31.1209 17.6324 31.1771 17.6456 31.2303C17.6587 31.2835 17.6932 31.3289 17.7408 31.356L17.8397 31.1822ZM24.4736 28.2275H24.6736C24.6736 28.1598 24.6394 28.0967 24.5826 28.0598C24.5258 28.0229 24.4542 28.0173 24.3924 28.0448L24.4736 28.2275ZM17.8381 31.1779L17.7569 30.9951C17.721 31.0111 17.6905 31.0373 17.6694 31.0704L17.8381 31.1779ZM17.8375 31.1788L17.9188 31.3616C17.9547 31.3456 17.9851 31.3194 18.0062 31.2863L17.8375 31.1788ZM17.8359 31.1795L17.7547 30.9968C17.6857 31.0274 17.6399 31.0943 17.6362 31.1696C17.6325 31.245 17.6714 31.3161 17.737 31.3534L17.8359 31.1795ZM17.8399 31.1818L18.0086 31.2893C18.038 31.2431 18.0472 31.1868 18.034 31.1337C18.0209 31.0805 17.9864 31.0351 17.9388 31.008L17.8399 31.1818ZM24.3042 34.474L24.2053 34.6478C24.2672 34.6831 24.3432 34.6827 24.4047 34.6469C24.4663 34.6111 24.5042 34.5452 24.5042 34.474H24.3042ZM18.4008 31.1151L18.3195 30.9323C18.2506 30.963 18.2048 31.0299 18.201 31.1052C18.1973 31.1806 18.2363 31.2516 18.3019 31.2889L18.4008 31.1151ZM24.3042 28.4903H24.5042C24.5042 28.4226 24.4699 28.3594 24.4132 28.3226C24.3564 28.2857 24.2848 28.28 24.2229 28.3075L24.3042 28.4903ZM24.5725 34.7829L17.9386 31.0084L17.7408 31.356L24.3747 35.1306L24.5725 34.7829ZM24.2736 28.2275V34.9568H24.6736V28.2275H24.2736ZM17.9194 31.3606L24.5549 28.4103L24.3924 28.0448L17.7569 30.9951L17.9194 31.3606ZM17.6694 31.0704L17.6688 31.0714L18.0062 31.2863L18.0068 31.2854L17.6694 31.0704ZM17.7562 30.9961L17.7547 30.9968L17.9172 31.3623L17.9188 31.3616L17.7562 30.9961ZM17.737 31.3534L17.741 31.3556L17.9388 31.008L17.9348 31.0057L17.737 31.3534ZM17.6713 31.0743L17.671 31.0747L18.0083 31.2897L18.0086 31.2893L17.6713 31.0743ZM24.4031 34.3002L18.4997 30.9413L18.3019 31.2889L24.2053 34.6478L24.4031 34.3002ZM24.1042 28.4903V34.474H24.5042V28.4903H24.1042ZM18.482 31.2978L24.3855 28.673L24.2229 28.3075L18.3195 30.9323L18.482 31.2978Z" fill="currentcolor" mask="url(#path-9-outside-4_7288_10920)"/>
<mask id="path-11-outside-5_7288_10920" maskUnits="userSpaceOnUse" x="23.4766" y="27.228" width="8" height="8" fill="black">
<rect fill="white" x="23.4766" y="27.228" width="8" height="8"/>
<path fill-rule="evenodd" clip-rule="evenodd" d="M31.1148 31.1796L24.4766 28.228V34.9572L31.1116 31.1821L31.1113 31.1816L31.1148 31.1796ZM24.647 34.4738L30.5504 31.1149L24.647 28.4901V34.4738Z"/>
</mask>
<path fill-rule="evenodd" clip-rule="evenodd" d="M31.1148 31.1796L24.4766 28.228V34.9572L31.1116 31.1821L31.1113 31.1816L31.1148 31.1796ZM24.647 34.4738L30.5504 31.1149L24.647 28.4901V34.4738Z" fill="currentcolor"/>
<path d="M31.1148 31.1796L31.2137 31.3534C31.2793 31.3161 31.3183 31.2451 31.3145 31.1697C31.3108 31.0943 31.265 31.0275 31.196 30.9968L31.1148 31.1796ZM24.4766 28.228L24.5578 28.0453C24.496 28.0178 24.4244 28.0234 24.3676 28.0603C24.3108 28.0972 24.2766 28.1603 24.2766 28.228H24.4766ZM24.4766 34.9572H24.2766C24.2766 35.0285 24.3144 35.0943 24.376 35.1301C24.4376 35.1659 24.5136 35.1663 24.5755 35.1311L24.4766 34.9572ZM31.1116 31.1821L31.2105 31.3559C31.2581 31.3288 31.2925 31.2834 31.3057 31.2302C31.3189 31.177 31.3097 31.1208 31.2802 31.0746L31.1116 31.1821ZM31.1113 31.1816L31.0124 31.0078C30.9647 31.0349 30.9303 31.0803 30.9171 31.1335C30.9039 31.1867 30.9132 31.2429 30.9426 31.2891L31.1113 31.1816ZM30.5504 31.1149L30.6493 31.2887C30.7149 31.2514 30.7539 31.1804 30.7501 31.105C30.7464 31.0297 30.7006 30.9628 30.6316 30.9321L30.5504 31.1149ZM24.647 34.4738H24.447C24.447 34.545 24.4849 34.6109 24.5464 34.6467C24.608 34.6825 24.684 34.6829 24.7459 34.6476L24.647 34.4738ZM24.647 28.4901L24.7282 28.3073C24.6664 28.2798 24.5948 28.2855 24.538 28.3224C24.4812 28.3592 24.447 28.4224 24.447 28.4901H24.647ZM31.196 30.9968L24.5578 28.0453L24.3953 28.4108L31.0335 31.3623L31.196 30.9968ZM24.2766 28.228V34.9572H24.6766V28.228H24.2766ZM24.5755 35.1311L31.2105 31.3559L31.0127 31.0082L24.3777 34.7834L24.5755 35.1311ZM31.2802 31.0746L31.2799 31.0741L30.9426 31.2891L30.9429 31.2896L31.2802 31.0746ZM31.2102 31.3554L31.2137 31.3534L31.0159 31.0058L31.0124 31.0078L31.2102 31.3554ZM30.4515 30.9411L24.5481 34.3L24.7459 34.6476L30.6493 31.2887L30.4515 30.9411ZM24.5657 28.6728L30.4691 31.2976L30.6316 30.9321L24.7282 28.3073L24.5657 28.6728ZM24.847 34.4738V28.4901H24.447V34.4738H24.847Z" fill="currentcolor" mask="url(#path-11-outside-5_7288_10920)"/>
<mask id="path-13-outside-6_7288_10920" maskUnits="userSpaceOnUse" x="23.4766" y="19.7627" width="8" height="12" fill="black">
<rect fill="white" x="23.4766" y="19.7627" width="8" height="12"/>
<path fill-rule="evenodd" clip-rule="evenodd" d="M24.4766 20.7627V28.2272L31.1142 31.179L31.1139 31.1786L31.1137 31.1785L24.4766 20.7627ZM24.647 28.1163L30.3774 30.6647L24.647 21.6719V28.1163Z"/>
</mask>
<path fill-rule="evenodd" clip-rule="evenodd" d="M24.4766 20.7627V28.2272L31.1142 31.179L31.1139 31.1786L31.1137 31.1785L24.4766 20.7627ZM24.647 28.1163L30.3774 30.6647L24.647 21.6719V28.1163Z" fill="currentcolor"/>
<path d="M24.4766 20.7627L24.6452 20.6552C24.5975 20.5802 24.5059 20.5458 24.4206 20.5707C24.3352 20.5956 24.2766 20.6738 24.2766 20.7627H24.4766ZM24.4766 28.2272H24.2766C24.2766 28.3062 24.3231 28.3778 24.3953 28.4099L24.4766 28.2272ZM31.1142 31.179L31.0329 31.3618C31.1135 31.3976 31.2081 31.3764 31.2657 31.3095C31.3233 31.2427 31.3303 31.146 31.2829 31.0715L31.1142 31.179ZM31.1139 31.1786L31.2826 31.0712C31.2615 31.038 31.2311 31.0119 31.1952 30.9959L31.1139 31.1786ZM31.1137 31.1785L30.945 31.286C30.9661 31.3191 30.9965 31.3453 31.0324 31.3612L31.1137 31.1785ZM30.3774 30.6647L30.2961 30.8474C30.3767 30.8833 30.4713 30.8621 30.5289 30.7952C30.5865 30.7284 30.5934 30.6316 30.546 30.5572L30.3774 30.6647ZM24.647 28.1163H24.447C24.447 28.1954 24.4935 28.267 24.5657 28.2991L24.647 28.1163ZM24.647 21.6719L24.8156 21.5644C24.7679 21.4894 24.6764 21.455 24.591 21.4798C24.5057 21.5047 24.447 21.583 24.447 21.6719H24.647ZM24.2766 20.7627V28.2272H24.6766V20.7627H24.2766ZM24.3953 28.4099L31.0329 31.3618L31.1954 30.9963L24.5578 28.0444L24.3953 28.4099ZM31.2829 31.0715L31.2826 31.0712L30.9453 31.2861L30.9455 31.2865L31.2829 31.0715ZM31.1952 30.9959L31.195 30.9958L31.0324 31.3612L31.0326 31.3614L31.1952 30.9959ZM31.2823 31.071L24.6452 20.6552L24.3079 20.8702L30.945 31.286L31.2823 31.071ZM30.4586 30.482L24.7282 27.9336L24.5657 28.2991L30.2961 30.8474L30.4586 30.482ZM24.4783 21.7793L30.2087 30.7722L30.546 30.5572L24.8156 21.5644L24.4783 21.7793ZM24.847 28.1163V21.6719H24.447V28.1163H24.847Z" fill="currentcolor" mask="url(#path-13-outside-6_7288_10920)"/>
</svg>

<svg xmlns="http://www.w3.org/2000/svg" width="1em" height="1em" fill="none" viewBox="0 0 49 48"><rect width="44.375" height="29.787" x="2.145" y="15.989" stroke="currentcolor" stroke-width="3" rx="4.5"/><path stroke="currentcolor" stroke-width="3" d="m4.27 16.597 18.724-11.04c4-2.358 9.047.526 9.047 5.169v5.87"/><mask id="a" width="8" height="11" x="23.477" y="31.2" fill="#000" maskUnits="userSpaceOnUse"><path fill="#fff" d="M23.477 31.2h8v11h-8z"/><path fill-rule="evenodd" d="m31.113 32.2-6.636 3.86v4.942l6.636-8.802Zm-1.291 1.146-5.175 3.01v3.852l5.175-6.862Z" clip-rule="evenodd"/></mask><path fill="currentcolor" fill-rule="evenodd" d="m31.113 32.2-6.636 3.86v4.942l6.636-8.802Zm-1.291 1.146-5.175 3.01v3.852l5.175-6.862Z" clip-rule="evenodd"/><path fill="currentcolor" d="m24.477 36.06-.101-.172a.2.2 0 0 0-.1.173h.2Zm6.636-3.86.16.12a.2.2 0 0 0-.26-.293l.1.173Zm-6.636 8.802h-.2a.2.2 0 0 0 .36.12l-.16-.12Zm.17-4.647-.1-.172a.2.2 0 0 0-.1.172h.2Zm5.175-3.01.16.121a.2.2 0 0 0-.261-.293l.1.173Zm-5.175 6.863h-.2a.2.2 0 0 0 .36.12l-.16-.12Zm-.07-3.974 6.637-3.86-.201-.347-6.637 3.86.201.346Zm.1 4.768v-4.941h-.4v4.941h.4Zm-.04.12 6.636-8.801-.32-.241-6.636 8.802.32.24Zm.11-4.594 5.175-3.01-.201-.345-5.175 3.01.201.345Zm.1 3.68v-3.853h-.4v3.853h.4Zm4.815-6.983-5.175 6.863.32.24 5.174-6.862-.32-.24Z" mask="url(#a)"/><mask id="b" width="8" height="11" x="16.84" y="31.201" fill="#000" maskUnits="userSpaceOnUse"><path fill="#fff" d="M16.84 31.201h8v11h-8z"/><path fill-rule="evenodd" d="m17.84 32.2 6.637 8.803v-4.942L17.84 32.2Zm1.289 1.146 5.177 6.866v-3.855h-.002l-5.175-3.01Z" clip-rule="evenodd"/></mask><path fill="currentcolor" fill-rule="evenodd" d="m17.84 32.2 6.637 8.803v-4.942L17.84 32.2Zm1.289 1.146 5.177 6.866v-3.855h-.002l-5.175-3.01Z" clip-rule="evenodd"/><path fill="currentcolor" d="m17.84 32.2.1-.172a.2.2 0 0 0-.26.293l.16-.12Zm6.637 8.803-.16.12a.2.2 0 0 0 .36-.12h-.2Zm0-4.942h.2a.2.2 0 0 0-.1-.173l-.1.173Zm0 0 .1-.173a.2.2 0 0 0-.2 0l.1.172Zm0 0-.101.173a.2.2 0 0 0 .2 0l-.1-.173Zm-.171 4.151-.16.12a.2.2 0 0 0 .36-.12h-.2Zm-5.177-6.866.1-.172a.2.2 0 0 0-.26.293l.16-.12Zm5.177 3.012h.2a.2.2 0 0 0-.1-.174l-.1.174Zm-.002-.002-.1.173.1-.173Zm-6.624-4.035 6.637 8.802.32-.24L18 32.08l-.32.241Zm6.997 8.682v-4.942h-.4v4.942h.4Zm-.1-5.115-.201.345.201-.345Zm-.2 0h-.001l.2.346h.001l-.2-.346Zm.2 0-6.637-3.86-.2.346 6.636 3.86.2-.346Zm-.111 4.204-5.177-6.866-.32.24 5.177 6.867.32-.241Zm-.36-3.734v3.854h.4v-3.855h-.4Zm.098.172h.002l.2-.346-.002-.001-.2.346Zm-5.176-3.01 5.175 3.01.201-.347-5.174-3.01-.202.346Z" mask="url(#b)"/><mask id="c" width="8" height="12" x="16.836" y="19.763" fill="#000" maskUnits="userSpaceOnUse"><path fill="#fff" d="M16.836 19.763h8v12h-8z"/><path fill-rule="evenodd" d="m17.836 31.179 6.638-2.952v-7.464l-6.638 10.416Zm6.467-3.062v-6.445l-5.73 8.993 5.73-2.548Z" clip-rule="evenodd"/></mask><path fill="currentcolor" fill-rule="evenodd" d="m17.836 31.179 6.638-2.952v-7.464l-6.638 10.416Zm6.467-3.062v-6.445l-5.73 8.993 5.73-2.548Z" clip-rule="evenodd"/><path fill="currentcolor" d="m17.836 31.18-.169-.108a.2.2 0 0 0 .25.29l-.081-.183Zm0-.001-.081-.183a.2.2 0 0 0-.087.075l.168.108Zm6.638-2.952.08.183a.2.2 0 0 0 .12-.183h-.2Zm0-7.464h.2a.2.2 0 0 0-.37-.108l.17.108Zm-6.638 10.416.082.182a.2.2 0 0 0 .087-.075l-.169-.107Zm6.467-9.507h.2a.2.2 0 0 0-.369-.107l.169.107Zm0 6.445.081.182a.2.2 0 0 0 .119-.182h-.2Zm-5.73 2.548-.169-.108a.2.2 0 0 0 .25.29l-.081-.182Zm-.568.622-.337-.216.337.216Zm6.387-3.242-6.637 2.951.162.366 6.638-2.952-.163-.365Zm-.118-7.282v7.464h.4v-7.464h-.4Zm.03-.108-6.636 10.416.337.215 6.637-10.416-.337-.215Zm-6.55 10.341.164.365-.163-.365Zm6.349-9.324v6.445h.4v-6.445h-.4Zm-5.362 9.1 5.73-8.992-.337-.215-5.73 8.992.337.215Zm5.48-2.838-5.73 2.548.163.366 5.73-2.549-.162-.365Z" mask="url(#c)"/><mask id="d" width="8" height="8" x="16.836" y="27.227" fill="#000" maskUnits="userSpaceOnUse"><path fill="#fff" d="M16.836 27.227h8v8h-8z"/><path fill-rule="evenodd" d="m17.84 31.182 6.634 3.775v-6.73l-6.636 2.95v.002h-.002l.004.003Zm.56-.067 5.904 3.359V28.49l-5.903 2.625Z" clip-rule="evenodd"/></mask><path fill="currentcolor" fill-rule="evenodd" d="m17.84 31.182 6.634 3.775v-6.73l-6.636 2.95v.002h-.002l.004.003Zm.56-.067 5.904 3.359V28.49l-5.903 2.625Z" clip-rule="evenodd"/><path fill="currentcolor" d="m24.474 34.957-.1.174a.2.2 0 0 0 .3-.174h-.2Zm-6.634-3.775-.169-.107a.2.2 0 0 0 .07.281l.099-.174Zm6.634-2.954h.2a.2.2 0 0 0-.282-.183l.082.182Zm-6.636 2.95-.081-.183a.2.2 0 0 0-.088.075l.17.108Zm0 0 .08.184a.2.2 0 0 0 .088-.076l-.169-.107Zm-.002.002-.081-.183a.2.2 0 0 0-.018.356l.099-.174Zm.004.002.169.107a.2.2 0 0 0-.07-.281l-.1.174Zm6.464 3.292-.099.174a.2.2 0 0 0 .3-.174h-.2Zm-5.903-3.359-.081-.183a.2.2 0 0 0-.018.357l.099-.174Zm5.903-2.625h.2a.2.2 0 0 0-.281-.182l.081.182Zm.269 6.293-6.634-3.775-.198.348 6.634 3.775.198-.348Zm-.3-6.556v6.73h.4v-6.73h-.4Zm-6.354 3.134 6.636-2.95-.163-.366-6.635 2.95.162.366Zm-.25-.29.337.215-.337-.216Zm.087-.075h-.001l.162.366h.002l-.163-.366Zm-.019.357.004.003.198-.348-.004-.002-.198.347Zm-.066-.279.337.216-.337-.216Zm6.732 3.226L18.5 30.941l-.198.348 5.903 3.359.198-.348Zm-.299-5.81v5.984h.4V28.49h-.4Zm-5.622 2.808 5.904-2.625-.163-.365-5.903 2.624.162.366Z" mask="url(#d)"/><mask id="e" width="8" height="8" x="23.477" y="27.228" fill="#000" maskUnits="userSpaceOnUse"><path fill="#fff" d="M23.477 27.228h8v8h-8z"/><path fill-rule="evenodd" d="m31.115 31.18-6.638-2.952v6.73l6.635-3.776.003-.002Zm-6.468 3.294 5.903-3.36-5.903-2.624v5.984Z" clip-rule="evenodd"/></mask><path fill="currentcolor" fill-rule="evenodd" d="m31.115 31.18-6.638-2.952v6.73l6.635-3.776.003-.002Zm-6.468 3.294 5.903-3.36-5.903-2.624v5.984Z" clip-rule="evenodd"/><path fill="currentcolor" d="m31.115 31.18.099.173a.2.2 0 0 0-.018-.356l-.081.183Zm-6.638-2.952.08-.183a.2.2 0 0 0-.28.183h.2Zm0 6.73h-.2a.2.2 0 0 0 .299.173l-.1-.174Zm6.635-3.776.099.174a.2.2 0 0 0 .07-.281l-.17.107Zm0 0-.1-.174a.2.2 0 0 0-.07.281l.17-.107Zm-.562-.067.1.174a.2.2 0 0 0-.018-.357l-.082.183Zm-5.903 3.359h-.2a.2.2 0 0 0 .299.174l-.099-.174Zm0-5.984.081-.183a.2.2 0 0 0-.281.183h.2Zm6.549 2.507-6.638-2.952-.163.366 6.639 2.951.162-.365Zm-6.92-2.769v6.73h.4v-6.73h-.4Zm.3 6.903 6.634-3.775-.197-.348-6.635 3.775.198.348Zm6.704-4.056-.337.214.337-.214Zm-.07.28.004-.002-.198-.347-.004.002.198.347Zm-.759-.414L24.549 34.3l.198.348 5.903-3.36-.198-.347Zm-5.885-2.268 5.903 2.625.163-.366-5.904-2.625-.162.366Zm.281 5.8V28.49h-.4v5.984h.4Z" mask="url(#e)"/><mask id="f" width="8" height="12" x="23.477" y="19.763" fill="#000" maskUnits="userSpaceOnUse"><path fill="#fff" d="M23.477 19.763h8v12h-8z"/><path fill-rule="evenodd" d="M24.477 20.763v7.464l6.637 2.952-6.637-10.416Zm.17 7.353 5.73 2.549-5.73-8.993v6.444Z" clip-rule="evenodd"/></mask><path fill="currentcolor" fill-rule="evenodd" d="M24.477 20.763v7.464l6.637 2.952-6.637-10.416Zm.17 7.353 5.73 2.549-5.73-8.993v6.444Z" clip-rule="evenodd"/><path fill="currentcolor" d="m24.477 20.763.168-.108a.2.2 0 0 0-.368.108h.2Zm0 7.464h-.2a.2.2 0 0 0 .118.183l.082-.183Zm6.637 2.952-.081.183a.2.2 0 0 0 .25-.29l-.169.107Zm0 0 .169-.108a.2.2 0 0 0-.088-.075l-.081.183Zm0 0-.169.107a.2.2 0 0 0 .087.075l.082-.183Zm-.737-.514-.08.182a.2.2 0 0 0 .249-.29l-.169.108Zm-5.73-2.549h-.2a.2.2 0 0 0 .119.183l.081-.183Zm0-6.444.169-.108a.2.2 0 0 0-.369.108h.2Zm-.37-.91v7.465h.4v-7.464h-.4Zm.118 7.648 6.638 2.952.162-.366-6.637-2.952-.163.366Zm6.888 2.662-.338.214.338-.215Zm-.088-.076-.163.365.163-.365Zm.087.075-6.637-10.416-.337.215 6.637 10.416.337-.215Zm-.823-.589-5.73-2.548-.163.365 5.73 2.548.163-.365Zm-5.98-8.703 5.73 8.993.337-.215-5.73-8.993-.338.215Zm.368 6.337v-6.444h-.4v6.444h.4Z" mask="url(#f)"/></svg>
